assets/icons/utility/navigate-right.svg

<svg viewBox="0 0 24 24" xmlns="http://www.w3.org/2000/svg"><path d="m19.9662488 11.9721509c.000819.6617023-.2833911 1.2917013-.78 1.729l-11.152 9.811c-.76859095.6449293-1.9114732.558329-2.57410938-.1950495-.66263617-.7533785-.60264878-1.8979661.13510938-2.5779505l9.752-8.579c.0541548-.0474692.0852092-.1159857.0852092-.188s-.0310544-.1405308-.0852092-.188l-9.752-8.57899999c-.73775816-.67998436-.79774555-1.82457204-.13510938-2.57795052.66263618-.75337848 1.80551843-.83997876 2.57410938-.19504948l11.148 9.80799999c.497811.4380475.7833703 1.0689004.784 1.732z" fill-rule="evenodd"/></svg>

<svg xmlns="http://www.w3.org/2000/svg" viewBox="0 0 24 24">
  <path fill-rule="evenodd" d="M19.9662488,11.9721509 C19.9670678,12.6338532 19.6828577,13.2638522 19.1862488,13.7011509 L8.0342488,23.5121509 C7.26565785,24.1570802 6.1227756,24.0704799 5.46013942,23.3171014 C4.79750325,22.5637229 4.85749064,21.4191353 5.5952488,20.7391509 L15.3472488,12.1601509 C15.4014036,12.1126817 15.432458,12.0441652 15.432458,11.9721509 C15.432458,11.9001366 15.4014036,11.8316201 15.3472488,11.7841509 L5.5952488,3.20515091 C4.85749064,2.52516655 4.79750325,1.38057887 5.46013942,0.627200388 C6.1227756,-0.126178092 7.26565785,-0.212778371 8.0342488,0.432150906 L19.1822488,10.2401509 C19.6800598,10.6781984 19.9656191,11.3090513 19.9662488,11.9721509 Z"/>
</svg>
